X:79
T:Ayer vite na fonte (MG 34)
R:Tonada
C:Tradicional
S:Msica Tradicional Asturiana, (C) Tello & Tito. Asturies, 2001.
S:http://pagina.de/MusTradAst <telloytito@asturies.org>
A:Asturies
Z:Mtodu de Gaita 34
M:3/8
L:1/8
Q:3/8=83
E:Nivel 3
K:Cm
|C2 E|GGG|AGF-|FA{B}A|B3/2A/ G-|
G3|C2 E|GGG|AGF-|FED|
E3/2~D/ C-|C3||C2 C|E{G}E{G}E|FED-|
DEF|G G2-|G3|C2 E|GGG|
AGF-|FED|~E3/2D/ C-|C3|
W:Ayer vite na fonte,
W:tabes cantando,
W:y hoi que pas per ella
W:tabes llorando.
W:Dime porqu tas triste
W:y descolorida,
W:dime por qu sospires,
W:prenda querida.
W:
W:Sospiro por amores
W:que yo tena,
W:sospiro por amores
W:que yo quera.
W:Amores que tuvisti
W:sigues teniendo;
W:ya sabes que te quisi
W:y toi queriendo.
W:
W:Si tantu me quisisti
W:y tas queriendo,
W:Porqu nun vas veme
W:cuandu t'espero
W:
